FlatUX/src/svg/Atari - 7800-content.svg

<svg enable-background="new 0 0 256 256" viewBox="0 0 256 256" xmlns="http://www.w3.org/2000/svg"><path d="m219.833 12h-183.666c-2.669 0-4.833 2.164-4.833 4.833v223.167c0 2.209 1.791 4 4 4h185.333c2.209 0 4-1.791 4-4v-223.167c0-2.669-2.164-4.833-4.834-4.833z" fill="#223140"/><path d="m212 232h-168v-203.048c0-2.738 2.214-4.952 4.941-4.952h158.118c2.732 0 4.941 2.214 4.941 4.952z" fill="#1b80bb"/></svg>

<svg xmlns="http://www.w3.org/2000/svg" viewBox="0 0 256 256"><path fill="#223140" d="M219.833 12H36.167a4.833 4.833 0 0 0-4.833 4.833V240a4 4 0 0 0 4 4h185.333a4 4 0 0 0 4-4V16.833A4.833 4.833 0 0 0 219.833 12"/><path fill="#1b80bb" d="M212 232H44V28.952A4.946 4.946 0 0 1 48.941 24h158.118A4.943 4.943 0 0 1 212 28.952z"/></svg>
